Lila_HD/places/scalable/folder-publicshare-symbolic.svg

<?xml version="1.0" encoding="UTF-8" standalone="no"?>
<!-- Created with Inkscape (http://www.inkscape.org/) -->

<svg
   xmlns:dc="http://purl.org/dc/elements/1.1/"
   xmlns:cc="http://creativecommons.org/ns#"
   xmlns:rdf="http://www.w3.org/1999/02/22-rdf-syntax-ns#"
   xmlns:svg="http://www.w3.org/2000/svg"
   xmlns="http://www.w3.org/2000/svg"
   xmlns:sodipodi="http://sodipodi.sourceforge.net/DTD/sodipodi-0.dtd"
   xmlns:inkscape="http://www.inkscape.org/namespaces/inkscape"
   id="svg13094"
   height="16"
   width="16"
   version="1.1"
   inkscape:version="0.48.3.1 r9886"
   sodipodi:docname="folder-public-share.svg">
  <defs
     id="defs3002" />
  <sodipodi:namedview
     pagecolor="#ffffff"
     bordercolor="#666666"
     borderopacity="1"
     objecttolerance="10"
     gridtolerance="10"
     guidetolerance="10"
     inkscape:pageopacity="0"
     inkscape:pageshadow="2"
     inkscape:window-width="1920"
     inkscape:window-height="1035"
     id="namedview3000"
     showgrid="true"
     inkscape:zoom="45.254834"
     inkscape:cx="8.2748269"
     inkscape:cy="5.0363816"
     inkscape:window-x="-2"
     inkscape:window-y="23"
     inkscape:window-maximized="1"
     inkscape:current-layer="svg13094"
     inkscape:snap-bbox="true"
     inkscape:bbox-paths="true"
     inkscape:bbox-nodes="true"
     inkscape:snap-bbox-edge-midpoints="true"
     inkscape:snap-bbox-midpoints="true"
     inkscape:object-paths="true"
     inkscape:snap-intersection-paths="true"
     inkscape:object-nodes="true"
     inkscape:snap-smooth-nodes="true"
     inkscape:snap-midpoints="true"
     inkscape:snap-object-midpoints="true"
     inkscape:snap-center="true"
     inkscape:snap-global="true"
     inkscape:showpageshadow="false"
     showborder="true">
    <inkscape:grid
       type="xygrid"
       id="grid2982"
       empspacing="5"
       visible="true"
       enabled="true"
       snapvisiblegridlinesonly="true" />
  </sodipodi:namedview>
  <metadata
     id="metadata13099">
    <rdf:RDF>
      <cc:Work
         rdf:about="">
        <dc:format>image/svg+xml</dc:format>
        <dc:type
           rdf:resource="http://purl.org/dc/dcmitype/StillImage" />
        <dc:title />
      </cc:Work>
    </rdf:RDF>
  </metadata>
  <path
     id="path2990"
     d="m 29.331993,0.34132435 c -0.880709,-0.3896368 -1.92357,-0.336222 -2.800866,0.213943 C 25.632484,1.1188191 25.140751,2.0793186 25.130259,3.0666618 23.323018,5.6237786 22.45283,5.8043651 20.944789,5.6945258 19.501831,5.0065635 17.755302,5.5739412 17,7 c -0.775484,1.464164 -0.217199,3.279765 1.246969,4.055251 1.054574,0.558548 2.280154,0.404423 3.179409,-0.260988 2.034391,-0.406832 3.447547,0.265117 4.085491,2.234576 -0.01885,1.093667 0.539332,2.159868 1.572134,2.706885 1.464164,0.775484 3.279768,0.217195 4.055252,-1.246969 0.775484,-1.464164 0.217195,-3.279768 -1.246969,-4.055252 -0.02858,-0.01514 -0.054,-0.02976 -0.08285,-0.04388 C 28.97725,9.4324019 28.77021,8.3430301 29.753436,5.6213824 31.129057,4.7324544 31.533603,2.8967015 30.660712,1.5047841 30.330615,0.97840735 29.860418,0.57510625 29.331993,0.34132435 z M 25.839865,4.9984516 c 0.409497,0.4925643 0.953067,0.8041991 1.543207,0.9587985 1.063372,1.6644123 1.354507,3.4960078 0.207177,4.2825089 -0.53236,0.168292 -1.018298,0.4468 -1.390827,0.890035 C 24.736398,11.081964 23.51785,10.454327 22.554145,9.1990999 22.759536,8.4717551 22.66294,7.7238101 22.338456,7.0691975 22.498243,6.112975 23.38461,5.3370386 25.839865,4.9984516 z"
     inkscape:connector-curvature="0"
     style="fill:#999999;fill-opacity:0.912371168;fill-rule:nonzero" />
  <path
     style="fill:#999999;fill-opacity:0.912371168;fill-rule:nonzero;stroke:none"
     d="M 14.53125 -2.78125 L 9.96875 1.78125 C 8.2621523 1.2410519 6.3481406 1.403021 4.71875 2.34375 C 4.1331106 2.6818689 3.6546133 3.0905333 3.21875 3.5625 C 1.4023872 5.529315 0.94936707 8.4870247 2.21875 10.96875 L 4.15625 9.03125 C 3.7964338 7.7011208 4.1409106 6.2028394 5.1875 5.15625 C 6.7495972 3.5941529 9.2816525 3.5941529 10.84375 5.15625 L 16.65625 -0.65625 L 14.53125 -2.78125 z M 13.78125 5.03125 L 11.84375 6.96875 C 12.203566 8.2988794 11.890336 9.7971608 10.84375 10.84375 C 9.2816525 12.405848 6.7495972 12.405848 5.1875 10.84375 L -0.65625 16.65625 L 1.46875 18.78125 L 6.03125 14.21875 C 7.7378472 14.758948 9.6518599 14.596979 11.28125 13.65625 C 14.30553 11.91018 15.351741 8.106439 13.78125 5.03125 z M 8 6 C 6.8954305 6 6 6.8954305 6 8 C 6 9.1045695 6.8954305 10 8 10 C 9.1045695 10 10 9.1045695 10 8 C 10 6.8954305 9.1045695 6 8 6 z "
     id="path3818" />
  <path
     transform="translate(-25.580319,3.5206056)"
     d="m 15,3.5 a 2.5,2.5 0 1 1 -5,0 2.5,2.5 0 1 1 5,0 z"
     sodipodi:ry="2.5"
     sodipodi:rx="2.5"
     sodipodi:cy="3.5"
     sodipodi:cx="12.5"
     id="path2988"
     style="fill:#999999;fill-opacity:0.912371168;fill-rule:nonzero;stroke:none"
     sodipodi:type="arc" />
  <path
     style="fill:none;stroke:#999999;stroke-width:1.5;stroke-linecap:butt;stroke-linejoin:miter;stroke-miterlimit:4;stroke-opacity:0.912371168;stroke-dasharray:none"
     d="M -5.8006726,10.942389 -11.409587,7.3229608"
     id="path2991"
     inkscape:connector-curvature="0"
     sodipodi:nodetypes="cc" />
  <path
     style="fill:none;stroke:#999999;stroke-width:1.5;stroke-linecap:butt;stroke-linejoin:miter;stroke-miterlimit:4;stroke-opacity:0.912371168;stroke-dasharray:none"
     d="M -4.2426409,9.815812 -4.7460039,3.2720779"
     id="path2993"
     inkscape:connector-curvature="0"
     sodipodi:nodetypes="cc" />
  <path
     style="fill:none;stroke:#999999;stroke-width:1.5;stroke-linecap:butt;stroke-linejoin:miter;stroke-miterlimit:4;stroke-opacity:0.912371168;stroke-dasharray:none"
     d="M -6.9032799,2.145501 -11.313709,5.5492014"
     id="path2995"
     inkscape:connector-curvature="0"
     sodipodi:nodetypes="cc" />
  <path
     style="font-size:medium;font-style:normal;font-variant:normal;font-weight:normal;font-stretch:normal;text-indent:0;text-align:start;text-decoration:none;line-height:normal;letter-spacing:normal;word-spacing:normal;text-transform:none;direction:ltr;block-progression:tb;writing-mode:lr-tb;text-anchor:start;baseline-shift:baseline;color:#000000;fill:#999999;fill-opacity:0.912371168;stroke:none;stroke-width:1.39999998;marker:none;visibility:visible;display:inline;overflow:visible;enable-background:accumulate;font-family:Sans;-inkscape-font-specification:Sans"
     d="m -10.681694,28.693253 c 1.3255694,-0.576184 1.9287304,-2.125382 1.3525475,-3.45095 -0.047896,-0.11011 -0.098296,-0.206181 -0.1588338,-0.30612 1.1744577,-0.871621 2.6067006,-2.207198 3.5995606,-3.64415 0.531615,0.05966 1.082272,-0.0083 1.608089,-0.236826 1.602659,-0.696626 2.341696,-2.560089 1.645071,-4.162746 -0.696626,-1.602658 -2.549055,-2.315268 -4.151712,-1.618641 -0.62759,0.272795 -1.105831,0.705114 -1.433356,1.250125 -2.1930353,-0.139262 -3.7237753,-0.177146 -5.4988553,0.06103 -0.02457,-0.0904 -0.04546,-0.18688 -0.08391,-0.275328 -0.429728,-0.988636 -1.57424,-1.439198 -2.562874,-1.009468 -0.988637,0.42973 -1.465629,1.585272 -1.035899,2.573907 0.343494,0.790241 1.161175,1.233339 1.974753,1.161886 0.291835,1.721885 0.703698,3.918962 1.642942,5.645384 -0.564988,0.73084 -0.716307,1.741298 -0.322049,2.648325 0.576184,1.325569 2.098953,1.939763 3.424521,1.363579 z m 0.463963,-4.538668 c -0.691869,-0.489464 -1.589251,-0.64149 -2.43022,-0.319994 -1.058285,-1.453536 -1.71515,-3.218662 -2.243898,-4.928971 0.02655,-0.01024 0.05295,-0.02165 0.07929,-0.0331 0.67536,-0.293554 1.097316,-0.917742 1.162139,-1.60243 1.886765,2.11e-4 3.9036403,0.666316 4.975388,1.212709 0.03281,0.313985 0.110455,0.648862 0.242989,0.95377 0.157285,0.361847 0.3972843,0.638164 0.6571363,0.905019 -0.6540163,1.408771 -1.4618785,2.726801 -2.4428283,3.812998 z"
     id="path3769"
     inkscape:connector-curvature="0" />
</svg>

<?xml version="1.0" encoding="UTF-8"?>
<!-- Created with Inkscape (http://www.inkscape.org/) -->
<svg version="1.1" viewBox="0 0 16 16" xmlns="http://www.w3.org/2000/svg" xmlns:cc="http://creativecommons.org/ns#" xmlns:dc="http://purl.org/dc/elements/1.1/" xmlns:rdf="http://www.w3.org/1999/02/22-rdf-syntax-ns#">
<metadata>
<rdf:RDF>
<cc:Work rdf:about="">
<dc:format>image/svg+xml</dc:format>
<dc:type rdf:resource="http://purl.org/dc/dcmitype/StillImage"/>
<dc:title/>
</cc:Work>
</rdf:RDF>
</metadata>
<path d="m29.332 0.34132c-0.88071-0.38964-1.9236-0.33622-2.8009 0.21394-0.89864 0.56355-1.3904 1.5241-1.4009 2.5114-1.8072 2.5571-2.6774 2.7377-4.1855 2.6279-1.443-0.68796-3.1895-0.12058-3.9448 1.3055-0.77548 1.4642-0.2172 3.2798 1.247 4.0553 1.0546 0.55855 2.2802 0.40442 3.1794-0.26099 2.0344-0.40683 3.4475 0.26512 4.0855 2.2346-0.01885 1.0937 0.53933 2.1599 1.5721 2.7069 1.4642 0.77548 3.2798 0.2172 4.0553-1.247s0.2172-3.2798-1.247-4.0553c-0.02858-0.01514-0.054-0.02976-0.08285-0.04388-0.83219-0.95722-1.0392-2.0466-0.056-4.7682 1.3756-0.88893 1.7802-2.7247 0.90728-4.1166-0.3301-0.52638-0.80029-0.92968-1.3287-1.1635zm-3.4921 4.6571c0.4095 0.49256 0.95307 0.8042 1.5432 0.9588 1.0634 1.6644 1.3545 3.496 0.20718 4.2825-0.53236 0.16829-1.0183 0.4468-1.3908 0.89004-1.463-0.04783-2.6816-0.67547-3.6453-1.9307 0.20539-0.72734 0.1088-1.4753-0.21569-2.1299 0.15979-0.95622 1.0462-1.7322 3.5014-2.0707z" fill="#999" fill-opacity=".91237"/>
<path d="m14.531-2.7812-4.5625 4.5625c-1.7066-0.5402-3.6206-0.37823-5.25 0.5625-0.58564 0.33812-1.0641 0.74678-1.5 1.2188-1.8164 1.9668-2.2694 4.9245-1 7.4062l1.9375-1.9375c-0.35982-1.3301-0.015339-2.8284 1.0312-3.875 1.5621-1.5621 4.0942-1.5621 5.6562 0l5.8125-5.8125-2.125-2.125zm-0.75 7.8125-1.9375 1.9375c0.35982 1.3301 0.046586 2.8284-1 3.875-1.5621 1.5621-4.0942 1.5621-5.6562 0l-5.8438 5.8125 2.125 2.125 4.5625-4.5625c1.7066 0.5402 3.6206 0.37823 5.25-0.5625 3.0243-1.7461 4.0705-5.5498 2.5-8.625zm-5.7812 0.96875c-1.1046 0-2 0.89543-2 2s0.89543 2 2 2 2-0.89543 2-2-0.89543-2-2-2z" fill="#999" fill-opacity=".91237"/>
<path transform="translate(-25.58 3.5206)" d="m15 3.5a2.5 2.5 0 1 1-5 0 2.5 2.5 0 1 1 5 0z" fill="#999" fill-opacity=".91237"/>
<path d="m-5.8007 10.942-5.6089-3.6194" fill="none" stroke="#999" stroke-opacity=".91237" stroke-width="1.5"/>
<path d="m-4.2426 9.8158-0.50336-6.5437" fill="none" stroke="#999" stroke-opacity=".91237" stroke-width="1.5"/>
<path d="m-6.9033 2.1455-4.4104 3.4037" fill="none" stroke="#999" stroke-opacity=".91237" stroke-width="1.5"/>
<path d="m-10.682 28.693c1.3256-0.57618 1.9287-2.1254 1.3525-3.451-0.047896-0.11011-0.098296-0.20618-0.15883-0.30612 1.1745-0.87162 2.6067-2.2072 3.5996-3.6442 0.53162 0.05966 1.0823-0.0083 1.6081-0.23683 1.6027-0.69663 2.3417-2.5601 1.6451-4.1627-0.69663-1.6027-2.5491-2.3153-4.1517-1.6186-0.62759 0.2728-1.1058 0.70511-1.4334 1.2501-2.193-0.13926-3.7238-0.17715-5.4989 0.06103-0.02457-0.0904-0.04546-0.18688-0.08391-0.27533-0.42973-0.98864-1.5742-1.4392-2.5629-1.0095-0.98864 0.42973-1.4656 1.5853-1.0359 2.5739 0.34349 0.79024 1.1612 1.2333 1.9748 1.1619 0.29184 1.7219 0.7037 3.919 1.6429 5.6454-0.56499 0.73084-0.71631 1.7413-0.32205 2.6483 0.57618 1.3256 2.099 1.9398 3.4245 1.3636zm0.46396-4.5387c-0.69187-0.48946-1.5893-0.64149-2.4302-0.31999-1.0583-1.4535-1.7152-3.2187-2.2439-4.929 0.02655-0.01024 0.05295-0.02165 0.07929-0.0331 0.67536-0.29355 1.0973-0.91774 1.1621-1.6024 1.8868 2.11e-4 3.9036 0.66632 4.9754 1.2127 0.03281 0.31398 0.11046 0.64886 0.24299 0.95377 0.15728 0.36185 0.39728 0.63816 0.65714 0.90502-0.65402 1.4088-1.4619 2.7268-2.4428 3.813z" color="#000000" fill="#999" fill-opacity=".91237" style="block-progression:tb;text-indent:0;text-transform:none"/>
</svg>
